X: 30521
T: SCOTCH REEL. No. 1.
C:
%R: jig
B: Elias Howe "The Musician's Companion" Part 3 1844 p.52 #1
S: http://imslp.org/wiki/The_Musician's_Companion_(Howe,_Elias)
S: https://archive.org/stream/firstthirdpartof03howe/#page/66/mode/1up
Z: 2015 John Chambers <jc:trillian.mit.edu>
M: 6/8
L: 1/8
K: F
% - - - - - - - - - - - - - - - - - - - - - - - - -
A/G/ |\
F>GF FAc | Bdf f>ed | c>BA G>FG | AGG G2 A/G/ |\
F>GF F>Ac | Bdf f>ed | c>fA GFG | F3- F2 :|
|: c |\
cAf f2e | dBf fed | c>BA GFG | AGG G2 A/G/ |\
F>GF F>Ac | Bdf f>ed | c>fA GFG | F3- F2 :|
% - - - - - - - - - - - - - - - - - - - - - - - - -


